world_stage/static/flags/PRI/square.svg

<svg height="900" viewBox="0 0 900 900" width="900" xmlns="http://www.w3.org/2000/svg" xmlns:xlink="http://www.w3.org/1999/xlink"><clipPath id="a"><path d="m0 0h674.88v450h-674.88z" transform="translate(.1201 -135)"/></clipPath><path d="m0 900.00001h900v-899.999995h-900z" fill="#ed0000" stroke-width="1.63314"/><path d="m0 180h899.83998zm0 239.99999h899.83998z" stroke-width="1.33333"/><path clip-path="url(#a)" d="m0 0h675m-675 180h675" fill="none" stroke="#fff" stroke-width="90" transform="matrix(1.3335704 0 0 -2 -.160161 630.00001)"/><path d="m0 899.86182 519.54703-449.862-519.54703-449.862z" fill="#0050f0" stroke-width="1.63314"/><g fill="#fff" transform="matrix(1.1828849 0 0 1.1828849 -14.253829 106.43045)"><path d="m0 0-23.175-71.328 35.664-11.59z" transform="matrix(1.3333333 0 0 -1.3333333 173.04293 200)"/><path d="m0 0 23.18-71.328-35.668-11.59z" transform="matrix(1.3333333 0 0 -1.3333333 173.04293 200)"/><path d="m0 0h-75v-37.5z" transform="matrix(1.3333333 0 0 -1.3333333 268.15173 269.09893)"/><path d="m0 0-60.675-44.082-22.043 30.336z" transform="matrix(1.3333333 0 0 -1.3333333 268.15173 269.09893)"/><path d="m0 0 60.676-44.082 22.043 30.336z" transform="matrix(1.3333333 0 0 -1.3333333 77.9388 269.09893)"/><path d="m0 0h75v-37.5z" transform="matrix(1.3333333 0 0 -1.3333333 77.9388 269.09893)"/><path d="m0 0-23.176 71.328-35.664-11.586z" transform="matrix(1.3333333 0 0 -1.3333333 231.82427 380.90107)"/><path d="m0 0-60.676 44.082 22.04 30.34z" transform="matrix(1.3333333 0 0 -1.3333333 231.82427 380.90107)"/><g transform="matrix(1.3333333 0 0 -1.3333333 114.26693 380.90107)"><path d="m0 0 60.676 44.082-22.043 30.34z"/><path d="m0 0 23.176 71.328 35.664-11.586z"/></g></g></svg>

<?xml version="1.0" encoding="UTF-8" standalone="no"?>
<svg
   height="900"
   viewBox="0 0 900 900"
   width="900"
   version="1.1"
   id="svg16"
   sodipodi:docname="rect copy.svg"
   inkscape:version="1.4 (e7c3feb1, 2024-10-09)"
   xmlns:inkscape="http://www.inkscape.org/namespaces/inkscape"
   xmlns:sodipodi="http://sodipodi.sourceforge.net/DTD/sodipodi-0.dtd"
   xmlns="http://www.w3.org/2000/svg"
   xmlns:svg="http://www.w3.org/2000/svg">
  <defs
     id="defs16" />
  <sodipodi:namedview
     id="namedview16"
     pagecolor="#ffffff"
     bordercolor="#000000"
     borderopacity="0.25"
     inkscape:showpageshadow="2"
     inkscape:pageopacity="0.0"
     inkscape:pagecheckerboard="0"
     inkscape:deskcolor="#d1d1d1"
     inkscape:current-layer="svg16" />
  <clipPath
     id="a">
    <path
       d="M 0,0 H 674.88 V 450 H 0 Z"
       transform="translate(0.1201,-135)"
       id="path1" />
  </clipPath>
  <path
     d="M 0,900.00001 H 900 V 1.5e-5 H 0 Z"
     fill="#ed0000"
     id="path2"
     style="stroke-width:1.63314" />
  <path
     d="M 0,180 H 899.83998 Z M 0,419.99999 H 899.83998 Z"
     id="path3"
     style="stroke-width:1.33333" />
  <path
     clip-path="url(#a)"
     d="M 0,0 H 675 M 0,180 h 675"
     fill="none"
     stroke="#ffffff"
     stroke-width="90"
     transform="matrix(1.3335704,0,0,-2,-0.16016148,630.00001)"
     id="path4" />
  <path
     d="M 0,899.86182 519.54703,449.99982 0,0.13782 Z"
     fill="#0050f0"
     id="path5"
     style="stroke-width:1.63314" />
  <g
     fill="#ffffff"
     id="g16"
     transform="matrix(1.1828849,0,0,1.1828849,-14.253829,106.43045)">
    <path
       d="m 0,0 -23.175,-71.328 35.664,-11.59 z"
       transform="matrix(1.3333333,0,0,-1.3333333,173.04293,200)"
       id="path6" />
    <path
       d="m 0,0 23.18,-71.328 -35.668,-11.59 z"
       transform="matrix(1.3333333,0,0,-1.3333333,173.04293,200)"
       id="path7" />
    <path
       d="M 0,0 H -75 V -37.5 Z"
       transform="matrix(1.3333333,0,0,-1.3333333,268.15173,269.09893)"
       id="path8" />
    <path
       d="m 0,0 -60.675,-44.082 -22.043,30.336 z"
       transform="matrix(1.3333333,0,0,-1.3333333,268.15173,269.09893)"
       id="path9" />
    <path
       d="m 0,0 60.676,-44.082 22.043,30.336 z"
       transform="matrix(1.3333333,0,0,-1.3333333,77.9388,269.09893)"
       id="path10" />
    <path
       d="M 0,0 H 75 V -37.5 Z"
       transform="matrix(1.3333333,0,0,-1.3333333,77.9388,269.09893)"
       id="path11" />
    <path
       d="M 0,0 -23.176,71.328 -58.84,59.742 Z"
       transform="matrix(1.3333333,0,0,-1.3333333,231.82427,380.90107)"
       id="path12" />
    <path
       d="m 0,0 -60.676,44.082 22.04,30.34 z"
       transform="matrix(1.3333333,0,0,-1.3333333,231.82427,380.90107)"
       id="path13" />
    <g
       transform="matrix(1.3333333,0,0,-1.3333333,114.26693,380.90107)"
       id="g15">
      <path
         d="M 0,0 60.676,44.082 38.633,74.422 Z"
         id="path14" />
      <path
         d="M 0,0 23.176,71.328 58.84,59.742 Z"
         id="path15" />
    </g>
  </g>
</svg>
